Origami/64x64/apps/phoronix-test-suite.svg

<svg width="64" height="64" version="1" xmlns="http://www.w3.org/2000/svg">
 <path d="m9.6 5c-3.1024 0-5.6 2.4976-5.6 5.6v28 16.8c0 3.1024 2.8976 5.6 6 5.6s6-2.4976 6-5.6v-10.4h38.4c3.1024 0 5.6-2.4976 5.6-5.6v-28.8c0-3.1024-2.4976-5.6-5.6-5.6z" style="opacity:.2"/>
 <path d="m9.6 4c-3.1024 0-5.6 2.4976-5.6 5.6v28 16.8c0 3.1024 2.8976 5.6 6 5.6s6-2.4976 6-5.6v-10.4h38.4c3.1024 0 5.6-2.4976 5.6-5.6v-28.8c0-3.1024-2.4976-5.6-5.6-5.6z" style="fill:#7cb320"/>
 <path d="m21.386719 14c-2.984452 0-5.386719 1.758056-5.386719 4.691406v3.308594h-4l6.5 6 6.5-6h-4v-3h18.601562 2.796876 5.601562v-0.308594c0-2.93335-2.402267-4.691406-5.386719-4.691406h-21.226562zm24.113281 8-6.5 6h4v3h-18.601562-2.796876-5.601562v0.308594c0 2.93335 2.402267 4.691406 5.386719 4.691406h21.226562c2.984452 0 5.386719-1.758056 5.386719-4.691406v-3.308594h4l-6.5-6z" style="opacity:.2"/>
 <path d="m21.386719 13c-2.984452 0-5.386719 1.758056-5.386719 4.691406v3.308594h-4l6.5 6 6.5-6h-4v-3h18.601562 2.796876 5.601562v-0.308594c0-2.93335-2.402267-4.691406-5.386719-4.691406h-21.226562zm24.113281 8l-6.5 6h4v3h-18.601562-2.796876-5.601562v0.308594c0 2.93335 2.402267 4.691406 5.386719 4.691406h21.226562c2.984452 0 5.386719-1.758056 5.386719-4.691406v-3.308594h4l-6.5-6z" style="fill:#ffffff"/>
 <circle cx="32" cy="24" r="3" style="fill:#3f3f3f"/>
 <path d="M 9.5996094 4 C 6.4972094 4 4 6.4972094 4 9.5996094 L 4 10.599609 C 4 7.4972094 6.4972094 5 9.5996094 5 L 54.400391 5 C 57.502791 5 60 7.4972094 60 10.599609 L 60 9.5996094 C 60 6.4972094 57.502791 4 54.400391 4 L 9.5996094 4 z" style="fill:#ffffff;opacity:.2"/>
</svg>

<svg xmlns="http://www.w3.org/2000/svg" width="64" height="64" version="1">
 <path style="opacity:0.2" d="M 9.6,5 C 6.4976,5 4,7.4976 4,10.6 l 0,28 0,16.8 c 0,3.1024 2.8976,5.6 6,5.6 3.1024,0 6,-2.4976 6,-5.6 L 16,45 54.4,45 C 57.5024,45 60,42.5024 60,39.4 L 60,10.6 C 60,7.4976 57.5024,5 54.4,5 Z"/>
 <path style="fill:#7cb320" d="M 9.6,4 C 6.4976,4 4,6.4976 4,9.6 l 0,28 0,16.8 c 0,3.1024 2.8976,5.6 6,5.6 3.1024,0 6,-2.4976 6,-5.6 L 16,44 54.4,44 C 57.5024,44 60,41.5024 60,38.4 L 60,9.6 C 60,6.4976 57.5024,4 54.4,4 Z"/>
 <path style="opacity:0.2" d="M 21.386719,14 C 18.402267,14 16,15.758056 16,18.691406 L 16,22 l -4,0 6.5,6 6.5,-6 -4,0 0,-3 18.601562,0 2.796876,0 L 48,19 48,18.691406 C 48,15.758056 45.597733,14 42.613281,14 L 21.386719,14 Z M 45.5,22 39,28 l 4,0 0,3 -18.601562,0 -2.796876,0 L 16,31 16,31.308594 C 16,34.241944 18.402267,36 21.386719,36 l 21.226562,0 C 45.597733,36 48,34.241944 48,31.308594 L 48,28 l 4,0 -6.5,-6 z"/>
 <path style="fill:#ffffff" d="M 21.386719 13 C 18.402267 13 16 14.758056 16 17.691406 L 16 21 L 12 21 L 18.5 27 L 25 21 L 21 21 L 21 18 L 39.601562 18 L 42.398438 18 L 48 18 L 48 17.691406 C 48 14.758056 45.597733 13 42.613281 13 L 21.386719 13 z M 45.5 21 L 39 27 L 43 27 L 43 30 L 24.398438 30 L 21.601562 30 L 16 30 L 16 30.308594 C 16 33.241944 18.402267 35 21.386719 35 L 42.613281 35 C 45.597733 35 48 33.241944 48 30.308594 L 48 27 L 52 27 L 45.5 21 z"/>
 <circle style="fill:#3f3f3f" cx="32" cy="24" r="3"/>
 <path style="opacity:0.2;fill:#ffffff" d="M 9.5996094 4 C 6.4972094 4 4 6.4972094 4 9.5996094 L 4 10.599609 C 4 7.4972094 6.4972094 5 9.5996094 5 L 54.400391 5 C 57.502791 5 60 7.4972094 60 10.599609 L 60 9.5996094 C 60 6.4972094 57.502791 4 54.400391 4 L 9.5996094 4 z"/>
</svg>
